docs/static/img/logos/socket.svg

<?xml version="1.0" encoding="UTF-8"?>
<svg width="64px" height="64px" viewBox="0 0 64 64" version="1.1" xmlns="http://www.w3.org/2000/svg" xmlns:xlink="http://www.w3.org/1999/xlink">
    <!-- Generator: Sketch 63.1 (92452) - https://sketch.com -->
    <title>Icon</title>
    <desc>Created with Sketch.</desc>
    <g id="Icon" stroke="none" stroke-width="1" fill="none" fill-rule="evenodd">
        <path d="M52.7221622,39.8983784 L46.1837838,39.8983784 L46.1837838,41.9394595 C45.2151351,41.9394595 44.1427027,41.9394595 43.1048649,41.9740541 C41.7556757,41.9740541 40.4756757,42.0086486 39.7145946,41.9740541 C38.3308108,41.9394595 38.3308108,41.9394595 37.7772973,41.2821622 C37.6735135,41.1783784 37.6043243,41.0745946 37.5005405,40.9362162 C37.4313514,40.867027 32.6572973,35.5740541 31.5502703,34.3286486 L31.5502703,34.3286486 L31.2389189,33.9827027 C31.0659459,33.7751351 30.892973,33.6021622 30.72,33.3945946 L57.6691892,33.3945946 L57.6691892,35.8508108 L64,32.1837838 L57.6691892,28.5513514 L57.6691892,31.0075676 L19.3037838,31.0075676 C19.4767568,30.8345946 19.6497297,30.627027 19.8227027,30.4540541 L20.1340541,30.1081081 L20.1340541,30.1081081 C21.2756757,28.8627027 26.0497297,23.5697297 26.0843243,23.5005405 C26.1881081,23.3621622 26.2918919,23.2583784 26.3610811,23.1545946 C26.9145946,22.4972973 26.9145946,22.4972973 28.2983784,22.4627027 C29.0594595,22.4627027 30.3394595,22.4627027 31.6886486,22.4627027 C32.6918919,22.4627027 33.7297297,22.4627027 34.6637838,22.4972973 C35.1481081,23.6735135 36.3243243,24.5037838 37.6735135,24.5037838 C39.4724324,24.5037838 40.9254054,23.0508108 40.9254054,21.2518919 C40.9254054,19.452973 39.4724324,18 37.6735135,18 C36.2897297,18 35.1135135,18.8648649 34.6291892,20.0756757 C33.6951351,20.0756757 32.6572973,20.0756757 31.6886486,20.0410811 C30.3048649,20.0410811 29.0248649,20.0064865 28.2291892,20.0410811 C25.9805405,20.0756757 25.4616216,20.387027 24.4583784,21.5978378 C24.3891892,21.7016216 24.2854054,21.8054054 24.2162162,21.9091892 C24.0778378,22.0475676 19.2345946,27.4443243 18.1967568,28.5859459 L18.1967568,28.5859459 L17.9545946,28.8627027 C17.3318919,29.5545946 16.812973,30.1427027 15.9827027,30.8 C15.8443243,30.9037838 15.6713514,30.972973 14.7372973,31.0075676 C14.08,31.0421622 12.7308108,31.0421622 11.4508108,31.0421622 L11.4508108,31.0421622 L10.412973,31.0421622 C9.79027027,28.7935135 7.74918919,27.1675676 5.29297297,27.1675676 C2.35243243,27.1675676 0,29.5545946 0,32.4605405 C0,35.4010811 2.38702703,37.7535135 5.29297297,37.7535135 C7.88756757,37.7535135 10.0324324,35.92 10.5167568,33.4637838 L22.867027,33.4637838 L22.867027,33.4983784 C24.147027,33.4983784 25.4962162,33.532973 26.1535135,33.532973 C27.0875676,33.5675676 27.2605405,33.6713514 27.3989189,33.7405405 C28.2291892,34.3632432 28.7481081,34.9859459 29.3708108,35.6778378 L29.612973,35.92 L29.612973,35.92 C30.6508108,37.0616216 35.5286486,42.4583784 35.6324324,42.5621622 C35.7362162,42.6659459 35.8054054,42.7697297 35.9091892,42.8735135 C36.9124324,44.0843243 37.4313514,44.3956757 39.68,44.4302703 C39.9221622,44.4302703 40.2335135,44.4302703 40.5448649,44.4302703 C41.2713514,44.4302703 42.1708108,44.4302703 43.1394595,44.3956757 C44.1772973,44.3956757 45.2497297,44.3610811 46.2183784,44.3610811 L46.2183784,46.4021622 L52.7567568,46.4021622 L52.7221622,39.8983784 L52.7221622,39.8983784 Z" id="Path" fill="#000000" fill-rule="nonzero"></path>
    </g>
</svg>

<svg width="64" height="64" viewBox="0 0 64 64" xmlns="http://www.w3.org/2000/svg">
  <path d="M52.722 39.898h-6.538v2.041c-.969 0-2.041 0-3.08.035-1.348 0-2.628.035-3.39 0-1.383-.035-1.383-.035-1.937-.692-.103-.104-.173-.207-.276-.346a1630.4 1630.4 0 01-5.95-6.607l-.312-.346c-.173-.208-.346-.38-.519-.588h26.95v2.456L64 32.184l-6.33-3.633v2.457H19.303c.173-.173.346-.381.519-.554l.311-.346c1.142-1.245 5.916-6.538 5.95-6.607.104-.139.208-.243.277-.346.554-.658.554-.658 1.937-.692h3.39c1.004 0 2.042 0 2.976.034a3.264 3.264 0 003.01 2.007 3.248 3.248 0 003.251-3.252A3.248 3.248 0 0037.674 18c-1.384 0-2.56.865-3.045 2.076-.934 0-1.972 0-2.94-.035-1.384 0-2.664-.035-3.46 0-2.248.035-2.767.346-3.77 1.557-.07.104-.174.207-.243.311-.138.139-4.981 5.535-6.02 6.677l-.241.277c-.623.692-1.142 1.28-1.972 1.937-.139.104-.312.173-1.246.208-.657.034-2.006.034-3.286.034h-1.038a5.283 5.283 0 00-5.12-3.874 5.293 5.293 0 100 10.586 5.311 5.311 0 005.224-4.29h12.35v.034c1.28 0 2.63.035 3.287.035.934.035 1.107.138 1.245.208.83.622 1.35 1.245 1.972 1.937l.242.242c1.038 1.142 5.916 6.538 6.02 6.642.103.104.172.208.276.312 1.003 1.21 1.522 1.522 3.771 1.556h.865c.726 0 1.626 0 2.594-.034 1.038 0 2.11-.035 3.08-.035v2.041h6.538l-.035-6.504z" fill="#000000" fill-rule="nonzero"/>
</svg>
